assets/svg/link.svg

<svg width="30" height="28" viewBox="0 0 30 28" fill="none" xmlns="http://www.w3.org/2000/svg">
<path d="M23.4076 16.8333H25.3528V27.8333H0.0654297V3.99993H13.6817V5.83326H2.01061V25.9999H23.4076V16.8333ZM23.4076 5.83326C19.2819 5.83771 15.3265 7.38437 12.4092 10.1339C9.4919 12.8835 7.85088 16.6115 7.84615 20.4999H9.79134C9.79555 17.0975 11.2315 13.8356 13.7841 11.4298C16.3367 9.02392 19.7976 7.67056 23.4076 7.66659H25.9227L21.7474 11.6018L23.1227 12.898L29.6458 6.74993L23.1227 0.601807L21.7474 1.89797L25.9227 5.83326H23.4076Z" fill="#FCA326"/>
</svg>

<svg fill="none" viewBox="0 0 30 28" xmlns="http://www.w3.org/2000/svg">
<path d="m23.408 16.833h1.9452v11h-25.287v-23.833h13.616v1.8333h-11.671v20.167h21.397v-9.1666zm0-11c-4.1257 0.00445-8.0811 1.5511-10.998 4.3006-2.9173 2.7496-4.5583 6.4776-4.563 10.366h1.9452c0.00421-3.4024 1.4402-6.6643 3.9928-9.0701 2.5526-2.4059 6.0135-3.7592 9.6235-3.7632h2.5151l-4.1753 3.9352 1.3753 1.2962 6.5231-6.1481-6.5231-6.1481-1.3753 1.2962 4.1753 3.9353h-2.5151z" fill="#FCA326"/>
</svg>
